src/32x32/places/folder-gruvbox-mix-orange-pcloud.svg

<?xml version="1.0" encoding="UTF-8"?>
<svg width="32" height="32" version="1" xmlns="http://www.w3.org/2000/svg">
 <rect x="2" y="11" width="28" height="18" rx="1.4" ry="1.4" opacity=".2"/>
 <path d="m2 22.6c0 0.776 0.6244 1.4 1.4 1.4h25.2c0.776 0 1.4-0.624 1.4-1.4v-15.2c0-0.7756-0.624-1.4-1.4-1.4h-12.6c-2.1 0-2.8-3-4.9-3h-7.7c-0.7756 0-1.4 0.6244-1.4 1.4" fill="#b94c07"/>
 <rect x="2" y="9" width="28" height="18" rx="1.4" ry="1.4" opacity=".2"/>
 <rect x="4" y="8" width="24" height="11" rx="1.4" ry="1.4" fill="#F6E0B4"/>
 <rect x="2" y="10" width="28" height="18" rx="1.4" ry="1.4" fill="#f28534"/>
 <path d="m3.4004 3c-0.7756 0-1.4004 0.6248-1.4004 1.4004v1c0-0.7756 0.6248-1.4004 1.4004-1.4004h7.6996c2.1 0 2.8 3 4.9 3h12.6c0.775 0 1.4 0.6248 1.4 1.4004v-1c0-0.7756-0.625-1.4004-1.4-1.4004h-12.6c-2.1 0-2.8-3-4.9-3z" fill="#F6E0B4" opacity=".1"/>
 <path d="m16 13a5 5 0 0 0-4.6035 3.0488 4 4 0 0 0-3.3965 3.9512 4 4 0 0 0 3.8086 3.9902v0.009766h9.7148a2.4762 2.4762 0 0 0 2.4766-2.4766 2.4762 2.4762 0 0 0-1.1777-2.1055 2.5 2.5 0 0 0 0.17773-0.91797 2.5 2.5 0 0 0-2.4219-2.4961 5 5 0 0 0-4.5781-3.0039zm-2 3h4v3h-3v2h-1v-2zm1 1v1h2v-1z" fill="#4E3B30"/>
</svg>

<svg xmlns="http://www.w3.org/2000/svg" width="32" height="32" version="1">
 <rect style="opacity:0.2" width="28" height="18" x="2" y="11" rx="1.4" ry="1.4"/>
 <path style="fill:#b94c07" d="M 2,22.6 C 2,23.376 2.6244,24 3.4,24 H 28.6 C 29.376,24 30,23.376 30,22.6 V 7.4 C 30,6.6244 29.376,6 28.6,6 H 16 C 13.9,6 13.2,3 11.1,3 H 3.4 C 2.6244,3 2,3.6244 2,4.4"/>
 <rect style="opacity:0.2" width="28" height="18" x="2" y="9" rx="1.4" ry="1.4"/>
 <rect style="fill:#F6E0B4" width="24" height="11" x="4" y="8" rx="1.4" ry="1.4"/>
 <rect style="fill:#f28534" width="28" height="18" x="2" y="10" rx="1.4" ry="1.4"/>
 <path style="opacity:0.1;fill:#F6E0B4" d="M 3.4004,3 C 2.6248,3 2,3.6248 2,4.4004 V 5.4004 C 2,4.6248 2.6248,4 3.4004,4 H 11.1 C 13.2,4 13.9,7 16,7 H 28.6 C 29.375,7 30,7.6248 30,8.4004 V 7.4004 C 30,6.6248 29.375,6 28.6,6 H 16 C 13.9,6 13.2,3 11.1,3 Z"/>
 <path style="fill:#4E3B30" d="M 16,13 A 5,5 0 0 0 11.396484,16.048828 4,4 0 0 0 8,20 4,4 0 0 0 11.808594,23.990234 V 24 h 9.714844 A 2.4761905,2.4761905 0 0 0 24,21.523438 2.4761905,2.4761905 0 0 0 22.822266,19.417969 2.5,2.5 0 0 0 23,18.5 2.5,2.5 0 0 0 20.578125,16.003906 5,5 0 0 0 16,13 Z m -2,3 h 1 3 v 3 h -3 v 2 h -1 v -2 z m 1,1 v 1 h 2 v -1 z"/>
</svg>
